X:4907
T:Packie Byrne's
O:england
R:Jig
S:Lucy Farr, Galway (fiddle).
D:Lucy Farr - 'Hearth and Home'
M:6/8
L:1/8
K:G
|:E2D EGA|B2A Bee|dBA BAF|1 AFE DEF:|2 FED E3:|
efe ede|faf edB|AFF dFF|ABA FED|
efe ede|faf edB|AFF dFF|FED E3|
efe ede|faf edB|AFF dFF|ABA FED|
E2D EGA|B2A Bee|dBA BAF|FED E3||


